public/assets/images/icons/green/accept/knife.svg

<svg width="16" height="16" xmlns="http://www.w3.org/2000/svg" viewBox="0 0 16 16" shape-rendering="geometricPrecision" fill="#00962d"><defs><mask id="a"><rect fill="#fff" width="100%" height="100%"/><path fill="#000" d="M14.258-1.414l-3.229 3.227-1.69-1.69-2.74 2.743 4.432 4.433L17 1.329z"/></mask></defs><path fill="#cb1800" d="M15.586 1.33L14.258 0l-3.229 3.228L9.34 1.539 8.013 2.867l3.018 3.019z"/><path mask="url(#a)" d="M15.579 2.998a.702.702 0 0 0-.064.003c-1.004.116-2.668.598-3.658 2.451l-2.94 5.5-1.872-1.871.316-.581a.16.16 0 0 1 .11-.081l1.209-.238a.161.161 0 0 0 .116-.224l-.858-1.902a.161.161 0 0 1 .123-.225l2.11-.326a.16.16 0 0 0 .123-.224l-.91-2.058a.161.161 0 0 1 .121-.225l2.23-.362a.162.162 0 0 0 .129-.205L11.435.981a.158.158 0 0 1-.004-.075L11.544.3c.029-.154-.156-.254-.27-.146l-.458.437a.168.168 0 0 0-.03.04l-.094.174a.165.165 0 0 0-.013.123l.275.931a.161.161 0 0 1-.129.205l-2.342.38a.16.16 0 0 0-.122.223l.907 2.052a.16.16 0 0 1-.123.224l-2.117.327a.162.162 0 0 0-.122.226l.873 1.937a.16.16 0 0 1-.116.224l-.658.13a.16.16 0 0 0-.11.081l-.374.689-3.072-3.072c-.795-.795-2.095-.795-2.89 0s-.795 2.095 0 2.89l6.92 6.92a2.05 2.05 0 0 0 2.89 0 2.04 2.04 0 0 0 .497-2.044l5.114-9.566a.466.466 0 0 0-.401-.687zm-5.123 9.514c-.03-.035-.054-.073-.087-.107l-.928-.928 3.042-5.69c.685-1.281 1.739-1.802 2.637-2l-4.664 8.725z"/></svg>

<?xml version="1.0"?><!DOCTYPE svg PUBLIC "-//W3C//DTD SVG 1.1//EN" "http://www.w3.org/Graphics/SVG/1.1/DTD/svg11.dtd"><svg width="16px" height="16px" xmlns="http://www.w3.org/2000/svg" viewBox="0 0 16 16" shape-rendering="geometricPrecision" fill="#00962d"><defs><mask id="accept-path"><rect fill="#fff" width="100%" height="100%"/><polygon points="14.258,-1.414 11.029,1.813 9.339,0.123 6.599,2.866 11.031,7.299 17,1.329 " fill="#000"/></mask></defs><polygon points="15.586,1.33 14.258,0 11.029,3.228 9.34,1.539 8.013,2.867 11.031,5.886 " fill="#cb1800"/><path mask="url(#accept-path)" d="M15.579,2.998c-0.021,0-0.042,0.001-0.064,0.003c-1.004,0.116-2.668,0.598-3.658,2.451 c-0.837,1.565-2.043,3.822-2.94,5.5L7.045,9.081L7.361,8.5c0.023-0.042,0.063-0.072,0.11-0.081L8.68,8.181 c0.102-0.02,0.158-0.13,0.116-0.224L7.938,6.055C7.895,5.958,7.955,5.846,8.061,5.83l2.11-0.326 c0.105-0.016,0.166-0.127,0.123-0.224l-0.91-2.058C9.341,3.125,9.401,3.014,9.505,2.997l2.23-0.362 c0.096-0.016,0.156-0.112,0.129-0.205l-0.429-1.449c-0.007-0.024-0.009-0.05-0.004-0.075L11.544,0.3 c0.029-0.154-0.156-0.254-0.27-0.146l-0.458,0.437c-0.012,0.012-0.022,0.025-0.03,0.04l-0.094,0.174 c-0.02,0.038-0.025,0.082-0.013,0.123l0.275,0.931c0.028,0.093-0.033,0.189-0.129,0.205l-2.342,0.38 C8.379,2.46,8.319,2.57,8.361,2.667l0.907,2.052C9.311,4.816,9.25,4.927,9.145,4.943L7.028,5.27 C6.923,5.287,6.862,5.399,6.906,5.496l0.873,1.937c0.043,0.095-0.014,0.204-0.116,0.224l-0.658,0.13 c-0.047,0.009-0.087,0.039-0.11,0.081L6.521,8.557L3.449,5.485c-0.795-0.795-2.095-0.795-2.89,0s-0.795,2.095,0,2.89l6.92,6.92 c0.795,0.795,2.095,0.795,2.89,0c0.551-0.551,0.711-1.344,0.497-2.044l5.114-9.566C16.148,3.372,15.919,3.003,15.579,2.998z M10.456,12.512c-0.03-0.035-0.054-0.073-0.087-0.107l-0.928-0.928l3.042-5.69c0.685-1.281,1.739-1.802,2.637-2L10.456,12.512z"/></svg>
